X: 18214
T: Humours Of Glynn, The
R: waltz
M: 3/4
K: Dmajor
(3ABc|:"D"d2 dc BA|Bd F2 A2|f2 fg fe|d3FA2|
d2 dc BA|Bd F2 AF|"A"E2 F2 A2|"G"B4 (3ABc|
"D"d2 dc BA|Bd F2 A2|f2 fg fe|d3 F A2|
"G"G2 BG BG|"D"F2 A2 F2|"A"E2 F2 A2|1 "G"B4 (3ABc:|2 "G"B4 A2||
|:"D"d2 d2 d2|~f2 d2 d2|"A"~e2 d2 d2|"D"~f2 d2 d2|
"G"gf ef ge|"D"fd Bc dB|A2 F2 A2|"G"B4 (3ABc|
"D"d2 f2 a2|"G"b4 b2|"D"ag fg ab|a4 f2|
"G"gf ef ge|"D"fd Bc dB|A2 F2 A2|1 "G"B4 A2:|2 "G"B4 (3ABc||

